x-pack/solutions/search/plugins/serverless_search/public/assets/perl.svg

<svg width="128" height="128" viewBox="0 0 128 128" fill="none" xmlns="http://www.w3.org/2000/svg">
<g clip-path="url(#clip0_693_142147)">
<path d="M121.173 62.8787C121.173 28.8307 94.6995 1.23074 62.0371 1.23074C29.3788 1.23074 2.89945 28.8307 2.89945 62.8787C2.89945 96.9267 29.3778 124.53 62.0361 124.53C94.6985 124.53 121.173 96.9267 121.173 62.8787Z" fill="white"/>
<path d="M53.3404 127.517C39.4302 125.056 27.4981 118.705 17.637 108.511C9.24986 99.8428 3.47679 88.9288 0.85276 76.7638C-0.284253 71.5078 -0.284253 56.4768 0.85276 51.2238C2.62878 43.0008 6.07482 34.8358 10.7759 27.7148C13.8899 23.0008 23.004 13.8888 27.7161 10.7738C34.8392 6.07378 43.0093 2.62378 51.2304 0.85278C56.4834 -0.28422 71.5166 -0.28422 76.7737 0.85278C89.5808 3.61778 100.226 9.40078 109.411 18.5858C118.598 27.7718 124.381 38.4138 127.15 51.2248C128.283 56.4768 128.283 71.5078 127.15 76.7648C124.381 89.5708 118.598 100.213 109.411 109.399C100.373 118.44 89.8608 124.211 77.2637 127.049C72.7966 128.058 58.0254 128.346 53.3404 127.517ZM64.9075 114.745C64.9075 110.551 64.8455 110.248 64.0005 110.248C63.1625 110.248 63.0965 110.536 63.1315 114.145C63.1745 118.409 63.4745 119.717 64.3425 119.429C64.7435 119.297 64.9075 117.938 64.9075 114.745ZM58.1504 116.19C59.3424 114.994 59.6925 114.27 59.6925 112.981C59.6925 111.665 59.5325 111.346 58.9294 111.462C58.5124 111.54 58.0104 112.222 57.8154 112.969C57.6214 113.717 56.8154 114.873 56.0324 115.539C54.6144 116.735 54.5604 117.731 55.9074 117.731C56.2934 117.731 57.3014 117.034 58.1504 116.19ZM73.0936 117.237C73.2606 116.968 72.7546 116.201 71.9716 115.539C71.1856 114.873 70.3826 113.717 70.1886 112.969C69.9896 112.222 69.4876 111.54 69.0706 111.462C68.4706 111.346 68.3106 111.665 68.3106 112.981C68.3106 115.59 72.0536 118.923 73.0936 117.237ZM52.4334 109.091C52.4334 108.83 51.7994 108.269 51.0233 107.845C45.9693 105.076 40.0382 100.669 36.7432 97.2348C30.3101 90.5248 27.4131 83.8468 27.3431 75.5568C27.2951 70.0168 28.0081 67.1268 30.7071 61.9518C33.3161 56.9478 36.3382 53.1718 44.6573 44.5308C53.9444 34.8778 56.0824 32.3308 57.6954 28.9978C58.8434 26.6308 58.9954 25.7668 59.1554 20.7628C59.3544 14.5478 58.9754 10.2568 58.2284 10.2568C57.8894 10.2568 57.8274 11.8688 58.0184 15.4908C58.6414 27.0828 56.4884 30.6808 43.1263 40.3718C33.9241 47.0458 29.7021 50.6718 26.5131 54.6358C21.995 60.2458 19.993 65.1018 19.495 71.6858C18.288 87.5538 28.3431 101.315 46.0853 108.071C49.9993 109.558 52.4334 109.952 52.4334 109.091ZM83.1337 107.806C89.2318 105.263 93.8699 102.191 98.2439 97.7988C104.911 91.0978 107.683 84.8318 108.1 75.5568C108.462 67.4228 106.698 62.0418 101.663 55.9468C98.2129 51.7738 94.5009 48.7868 84.4887 42.1368C71.0186 33.1838 67.8556 29.6208 67.8556 23.3908C67.8556 21.7328 68.1555 19.3848 68.5176 18.1738C69.1406 16.1058 69.1256 14.6808 68.4976 16.3118C67.9065 17.8578 66.5505 17.1488 65.8225 14.9018L65.1225 12.7498L65.3865 14.7898C66.3285 22.0318 66.4465 25.0658 66.0285 31.4048C65.4645 39.9748 64.4125 45.8318 61.5185 56.4808C58.6484 67.0528 58.1314 70.8848 58.4894 78.9568C58.7894 85.7818 59.7435 90.8868 61.9635 97.5498C64.0235 103.733 64.4085 104.204 68.1985 105.174C70.2816 105.707 72.2566 106.607 73.8256 107.74C75.3016 108.807 76.7777 109.5 77.6067 109.515C78.3547 109.527 80.8447 108.76 83.1337 107.806ZM81.7627 104.73C81.1977 104.165 81.4627 103.682 83.6747 101.237C90.6448 93.5428 93.7689 85.5958 93.8579 75.3308C93.9209 68.3378 92.3748 63.7038 87.6578 56.7378C85.5278 53.5878 78.0237 45.7298 74.3946 42.8448C71.7346 40.7308 68.9966 37.1248 68.5096 35.0848C68.0156 33.0168 69.4016 33.5618 71.0056 36.0648C71.7926 37.2918 73.4986 39.0948 74.7956 40.0688C76.0916 41.0458 79.9277 43.9038 83.3197 46.4238C94.9839 55.0948 100.179 62.4898 101.343 72.0958C102.021 77.6518 100.946 83.3958 98.2359 88.7298C95.4239 94.2548 90.2988 100.275 85.9098 103.207C83.2067 105.01 82.3537 105.322 81.7627 104.73ZM58.9254 105.314C59.0584 104.971 57.8894 102.779 56.3324 100.439C52.2044 94.2478 50.4083 90.8328 48.7343 85.9848C47.3203 81.8998 47.2423 81.3438 47.2303 75.1018C47.2153 65.6708 48.2353 62.6798 55.7204 50.2518C62.7775 38.5338 63.7355 33.9938 62.9405 15.9658C62.6525 9.50578 62.3295 4.12778 62.2205 4.01578C61.4765 3.27178 61.3165 5.18778 61.5935 11.6858C62.1385 24.6258 61.3015 31.8328 58.5754 37.7478C56.7174 41.7738 54.6374 44.8228 49.0453 51.7498C41.2572 61.3868 39.0602 66.4998 39.0992 74.8758C39.1302 80.6188 39.9052 84.1508 42.2262 89.0608C44.7383 94.3808 49.3613 99.7498 55.1564 104.072C57.8234 106.066 58.5464 106.303 58.9254 105.314Z" fill="#212178"/>
</g>
<defs>
<clipPath id="clip0_693_142147">
<rect width="128" height="128.001" fill="white"/>
</clipPath>
</defs>
</svg>

<svg xmlns="http://www.w3.org/2000/svg" width="128" height="128" fill="none"><g clip-path="url(#a)"><path fill="#fff" d="M121.173 62.879C121.173 28.83 94.7 1.23 62.037 1.23 29.38 1.23 2.9 28.83 2.9 62.879s26.479 61.651 59.137 61.651c32.662 0 59.137-27.603 59.137-61.651"/><path fill="#212178" d="M53.34 127.517c-13.91-2.461-25.842-8.812-35.703-19.006C9.25 99.843 3.477 88.929.853 76.764c-1.137-5.256-1.137-20.287 0-25.54C2.629 43 6.075 34.836 10.776 27.714c3.114-4.713 12.228-13.825 16.94-16.94C34.84 6.074 43.01 2.624 51.23.853c5.253-1.137 20.287-1.137 25.544 0C89.58 3.618 100.226 9.4 109.41 18.586c9.187 9.186 14.97 19.828 17.739 32.639 1.133 5.252 1.133 20.283 0 25.54-2.769 12.806-8.552 23.448-17.739 32.634-9.038 9.041-19.55 14.812-32.147 17.65-4.467 1.009-19.239 1.297-23.924.468m11.567-12.772c0-4.194-.061-4.497-.906-4.497-.839 0-.905.288-.87 3.897.044 4.264.343 5.572 1.212 5.284.4-.132.564-1.491.564-4.684m-6.757 1.445c1.192-1.196 1.543-1.92 1.543-3.209 0-1.316-.16-1.635-.764-1.519-.417.078-.919.76-1.114 1.507-.194.748-1 1.904-1.783 2.57-1.418 1.196-1.472 2.192-.125 2.192.386 0 1.394-.697 2.243-1.541m14.944 1.047c.167-.269-.34-1.036-1.122-1.698-.786-.666-1.59-1.822-1.783-2.57-.2-.747-.701-1.429-1.118-1.507-.6-.116-.76.203-.76 1.519 0 2.609 3.743 5.942 4.783 4.256m-20.66-8.146c0-.261-.635-.822-1.41-1.246-5.055-2.769-10.986-7.176-14.28-10.61-6.434-6.71-9.33-13.388-9.4-21.678-.049-5.54.664-8.43 3.363-13.605 2.61-5.004 5.631-8.78 13.95-17.421 9.287-9.653 11.425-12.2 13.038-15.533 1.148-2.367 1.3-3.231 1.46-8.235.2-6.215-.18-10.506-.927-10.506-.339 0-.4 1.612-.21 5.234.623 11.592-1.53 15.19-14.892 24.88-9.202 6.675-13.424 10.3-16.613 14.265-4.518 5.61-6.52 10.466-7.018 17.05-1.207 15.868 8.848 29.629 26.59 36.385 3.914 1.487 6.348 1.881 6.348 1.02m30.7-1.285c6.098-2.543 10.736-5.615 15.11-10.007 6.667-6.701 9.439-12.967 9.856-22.242.362-8.134-1.402-13.515-6.437-19.61-3.45-4.173-7.162-7.16-17.174-13.81-13.47-8.953-16.633-12.516-16.633-18.746 0-1.658.3-4.006.662-5.217.623-2.068.608-3.493-.02-1.862-.592 1.546-1.948.837-2.675-1.41l-.7-2.152.263 2.04c.943 7.242 1.06 10.276.642 16.615-.564 8.57-1.616 14.427-4.51 25.076-2.87 10.572-3.387 14.404-3.029 22.476.3 6.825 1.255 11.93 3.475 18.593 2.06 6.183 2.445 6.654 6.234 7.624 2.084.533 4.059 1.433 5.628 2.566 1.476 1.067 2.952 1.76 3.78 1.775.749.012 3.239-.755 5.528-1.709m-1.371-3.076c-.565-.565-.3-1.048 1.912-3.493 6.97-7.694 10.094-15.641 10.183-25.906.063-6.993-1.483-11.627-6.2-18.593-2.13-3.15-9.634-11.008-13.263-13.893-2.66-2.114-5.398-5.72-5.885-7.76-.494-2.068.892-1.523 2.496.98.787 1.227 2.493 3.03 3.79 4.004 1.296.977 5.132 3.835 8.524 6.355 11.664 8.67 16.859 16.066 18.023 25.672.678 5.556-.397 11.3-3.107 16.634-2.812 5.525-7.937 11.545-12.326 14.477-2.703 1.803-3.556 2.115-4.147 1.523m-22.838.584c.133-.343-1.036-2.535-2.593-4.875-4.128-6.191-5.924-9.606-7.598-14.454-1.414-4.085-1.492-4.641-1.504-10.883-.015-9.431 1.005-12.422 8.49-24.85 7.058-11.718 8.016-16.258 7.22-34.286-.287-6.46-.61-11.838-.72-11.95-.743-.744-.904 1.172-.626 7.67.544 12.94-.293 20.147-3.019 26.062-1.858 4.026-3.938 7.075-9.53 14.002-7.788 9.637-9.985 14.75-9.946 23.126.031 5.743.806 9.275 3.127 14.185 2.512 5.32 7.135 10.689 12.93 15.011 2.667 1.994 3.39 2.231 3.77 1.242"/></g><defs><clipPath id="a"><path fill="#fff" d="M0 0h128v128.001H0z"/></clipPath></defs></svg>
